icons/midnadark/actions/24/system-run.svg

<?xml version="1.0" encoding="UTF-8" standalone="no"?>
<!-- Created with Inkscape (http://www.inkscape.org/) -->

<svg
   xmlns:sketch="http://www.bohemiancoding.com/sketch/ns"
   xmlns:osb="http://www.openswatchbook.org/uri/2009/osb"
   xmlns:dc="http://purl.org/dc/elements/1.1/"
   xmlns:cc="http://creativecommons.org/ns#"
   xmlns:rdf="http://www.w3.org/1999/02/22-rdf-syntax-ns#"
   xmlns:svg="http://www.w3.org/2000/svg"
   xmlns="http://www.w3.org/2000/svg"
   xmlns:sodipodi="http://sodipodi.sourceforge.net/DTD/sodipodi-0.dtd"
   xmlns:inkscape="http://www.inkscape.org/namespaces/inkscape"
   width="22"
   height="22"
   id="svg3869"
   version="1.1"
   inkscape:version="0.91 r13725"
   sodipodi:docname="system-run.svg">
  <defs
     id="defs3871">
    <inkscape:perspective
       sodipodi:type="inkscape:persp3d"
       inkscape:vp_x="0 : 12 : 1"
       inkscape:vp_y="0 : 1000 : 0"
       inkscape:vp_z="24 : 12 : 1"
       inkscape:persp3d-origin="12 : 8 : 1"
       id="perspective4146" />
    <inkscape:perspective
       sodipodi:type="inkscape:persp3d"
       inkscape:vp_x="0 : 12 : 1"
       inkscape:vp_y="0 : 1000 : 0"
       inkscape:vp_z="24 : 12 : 1"
       inkscape:persp3d-origin="12 : 8 : 1"
       id="perspective4090" />
    <clipPath
       clipPathUnits="userSpaceOnUse"
       id="clipPath16">
      <path
         d="m 0,706.465 1490.926,0 L 1490.926,0 0,0 0,706.465 Z"
         id="path18"
         inkscape:connector-curvature="0" />
    </clipPath>
    <clipPath
       clipPathUnits="userSpaceOnUse"
       id="clipPath24">
      <path
         d="m 22.1953,686.117 1447.7347,0 0,-667.1902 -1447.7347,0 0,667.1902 z"
         id="path26"
         inkscape:connector-curvature="0" />
    </clipPath>
    <clipPath
       clipPathUnits="userSpaceOnUse"
       id="clipPath4534">
      <rect
         ry="15.999986"
         y="8.0000038"
         x="8.0000114"
         height="31.999971"
         width="31.999989"
         id="rect4536"
         style="fill:url(#linearGradient4538);fill-opacity:1;stroke:none" />
    </clipPath>
    <clipPath
       clipPathUnits="userSpaceOnUse"
       id="clipPath4584">
      <rect
         ry="15.999986"
         y="507.798"
         x="392.57144"
         height="31.999971"
         width="31.999989"
         id="rect4586"
         style="fill:url(#linearGradient4588);fill-opacity:1;stroke:none" />
    </clipPath>
    <clipPath
       clipPathUnits="userSpaceOnUse"
       id="clipPath4550">
      <rect
         ry="15.999986"
         y="507.798"
         x="392.57144"
         height="31.999971"
         width="31.999989"
         id="rect4552"
         style="fill:url(#linearGradient4554);fill-opacity:1;stroke:none" />
    </clipPath>
    <clipPath
       clipPathUnits="userSpaceOnUse"
       id="clipPath4568">
      <rect
         ry="15.999986"
         y="507.798"
         x="392.57144"
         height="31.999971"
         width="31.999989"
         id="rect4570"
         style="fill:url(#linearGradient4572);fill-opacity:1;stroke:none" />
    </clipPath>
    <clipPath
       clipPathUnits="userSpaceOnUse"
       id="clipPath4528">
      <rect
         ry="15.999986"
         y="8.0000038"
         x="8.0000114"
         height="31.999971"
         width="31.999989"
         id="rect4530"
         style="fill:url(#linearGradient4532);fill-opacity:1;stroke:none" />
    </clipPath>
    <clipPath
       clipPathUnits="userSpaceOnUse"
       id="clipPath4578">
      <rect
         ry="15.999986"
         y="507.798"
         x="392.57144"
         height="31.999971"
         width="31.999989"
         id="rect4580"
         style="fill:url(#linearGradient4582);fill-opacity:1;stroke:none" />
    </clipPath>
    <clipPath
       clipPathUnits="userSpaceOnUse"
       id="clipPath4562">
      <rect
         ry="15.999986"
         y="507.798"
         x="392.57144"
         height="31.999971"
         width="31.999989"
         id="rect4564"
         style="fill:url(#linearGradient4566);fill-opacity:1;stroke:none" />
    </clipPath>
    <clipPath
       clipPathUnits="userSpaceOnUse"
       id="clipPath4544">
      <rect
         ry="15.999986"
         y="507.798"
         x="392.57144"
         height="31.999971"
         width="31.999989"
         id="rect4546"
         style="fill:url(#linearGradient4548);fill-opacity:1;stroke:none" />
    </clipPath>
    <clipPath
       clipPathUnits="userSpaceOnUse"
       id="clipPath4390">
      <rect
         ry="15.999986"
         y="8.0000038"
         x="8.0000114"
         height="31.999971"
         width="31.999989"
         id="rect4392"
         style="fill:url(#linearGradient4532);fill-opacity:1;stroke:none" />
    </clipPath>
    <clipPath
       clipPathUnits="userSpaceOnUse"
       id="clipPath4407">
      <rect
         ry="15.999986"
         y="507.798"
         x="392.57144"
         height="31.999971"
         width="31.999989"
         id="rect4409"
         style="fill:url(#linearGradient4582);fill-opacity:1;stroke:none" />
    </clipPath>
    <clipPath
       clipPathUnits="userSpaceOnUse"
       id="clipPath4424">
      <rect
         ry="15.999986"
         y="507.798"
         x="392.57144"
         height="31.999971"
         width="31.999989"
         id="rect4426"
         style="fill:url(#linearGradient4566);fill-opacity:1;stroke:none" />
    </clipPath>
    <clipPath
       clipPathUnits="userSpaceOnUse"
       id="clipPath4441">
      <rect
         ry="15.999986"
         y="507.798"
         x="392.57144"
         height="31.999971"
         width="31.999989"
         id="rect4443"
         style="fill:url(#linearGradient4548);fill-opacity:1;stroke:none" />
    </clipPath>
    <clipPath
       id="clipPath4528-1"
       clipPathUnits="userSpaceOnUse">
      <rect
         style="fill:url(#linearGradient4532);fill-opacity:1;stroke:none"
         id="rect4530-7"
         width="31.999989"
         height="31.999971"
         x="8.0000114"
         y="8.0000038"
         ry="15.999986" />
    </clipPath>
    <clipPath
       id="clipPath4578-8"
       clipPathUnits="userSpaceOnUse">
      <rect
         style="fill:url(#linearGradient4582);fill-opacity:1;stroke:none"
         id="rect4580-7"
         width="31.999989"
         height="31.999971"
         x="392.57144"
         y="507.798"
         ry="15.999986" />
    </clipPath>
    <clipPath
       id="clipPath4562-8"
       clipPathUnits="userSpaceOnUse">
      <rect
         style="fill:url(#linearGradient4566);fill-opacity:1;stroke:none"
         id="rect4564-8"
         width="31.999989"
         height="31.999971"
         x="392.57144"
         y="507.798"
         ry="15.999986" />
    </clipPath>
    <clipPath
       id="clipPath4544-1"
       clipPathUnits="userSpaceOnUse">
      <rect
         style="fill:url(#linearGradient4548);fill-opacity:1;stroke:none"
         id="rect4546-1"
         width="31.999989"
         height="31.999971"
         x="392.57144"
         y="507.798"
         ry="15.999986" />
    </clipPath>
    <linearGradient
       osb:paint="gradient"
       id="linearGradient4207">
      <stop
         id="stop3371"
         offset="0"
         style="stop-color:#3498db;stop-opacity:1;" />
      <stop
         id="stop3373"
         offset="1"
         style="stop-color:#3498db;stop-opacity:0;" />
    </linearGradient>
    <linearGradient
       id="linearGradient4290-48">
      <stop
         style="stop-color:#a5a5a5;stop-opacity:1;"
         offset="0"
         id="stop4292-0" />
      <stop
         style="stop-color:#f5f2f5;stop-opacity:1;"
         offset="1"
         id="stop4294-0" />
    </linearGradient>
    <inkscape:perspective
       sodipodi:type="inkscape:persp3d"
       inkscape:vp_x="0 : 12 : 1"
       inkscape:vp_y="0 : 1000 : 0"
       inkscape:vp_z="24 : 12 : 1"
       inkscape:persp3d-origin="12 : 8 : 1"
       id="perspective4146-9" />
    <inkscape:perspective
       sodipodi:type="inkscape:persp3d"
       inkscape:vp_x="0 : 12 : 1"
       inkscape:vp_y="0 : 1000 : 0"
       inkscape:vp_z="24 : 12 : 1"
       inkscape:persp3d-origin="12 : 8 : 1"
       id="perspective4146-99" />
    <inkscape:perspective
       id="perspective4146-9-1"
       inkscape:persp3d-origin="12 : 8 : 1"
       inkscape:vp_z="24 : 12 : 1"
       inkscape:vp_y="0 : 1000 : 0"
       inkscape:vp_x="0 : 12 : 1"
       sodipodi:type="inkscape:persp3d" />
    <inkscape:perspective
       id="perspective4146-96"
       inkscape:persp3d-origin="12 : 8 : 1"
       inkscape:vp_z="24 : 12 : 1"
       inkscape:vp_y="0 : 1000 : 0"
       inkscape:vp_x="0 : 12 : 1"
       sodipodi:type="inkscape:persp3d" />
    <clipPath
       id="clipPath16-9"
       clipPathUnits="userSpaceOnUse">
      <path
         id="path18-5"
         d="m 0,706.465 1490.926,0 L 1490.926,0 0,0 0,706.465 Z"
         inkscape:connector-curvature="0" />
    </clipPath>
    <clipPath
       id="clipPath24-8"
       clipPathUnits="userSpaceOnUse">
      <path
         id="path26-0"
         d="m 22.1953,686.117 1447.7347,0 0,-667.1902 -1447.7347,0 0,667.1902 z"
         inkscape:connector-curvature="0" />
    </clipPath>
  </defs>
  <sodipodi:namedview
     id="base"
     pagecolor="#ffffff"
     bordercolor="#666666"
     borderopacity="1.0"
     inkscape:pageopacity="0.0"
     inkscape:pageshadow="2"
     inkscape:zoom="7.9999997"
     inkscape:cx="-1.0248929"
     inkscape:cy="11.202721"
     inkscape:document-units="px"
     inkscape:current-layer="layer1"
     showgrid="true"
     fit-margin-top="0"
     fit-margin-left="0"
     fit-margin-right="0"
     fit-margin-bottom="0"
     inkscape:window-width="1366"
     inkscape:window-height="633"
     inkscape:window-x="0"
     inkscape:window-y="33"
     inkscape:window-maximized="1"
     inkscape:showpageshadow="false"
     inkscape:object-nodes="true"
     inkscape:snap-bbox="true">
    <inkscape:grid
       type="xygrid"
       id="grid4132" />
    <sodipodi:guide
       position="4,18"
       orientation="18,0"
       id="guide4138" />
    <sodipodi:guide
       position="5,3"
       orientation="0,18"
       id="guide4140" />
    <sodipodi:guide
       position="20,2.0000174"
       orientation="-18,0"
       id="guide4142" />
    <sodipodi:guide
       position="2,21"
       orientation="0,-18"
       id="guide4144" />
    <sodipodi:guide
       position="3,19.000017"
       orientation="16,0"
       id="guide4146" />
    <sodipodi:guide
       position="2,4"
       orientation="0,16"
       id="guide4148" />
    <sodipodi:guide
       position="21,20"
       orientation="-16,0"
       id="guide4150" />
    <sodipodi:guide
       position="2,20"
       orientation="0,-16"
       id="guide4152" />
  </sodipodi:namedview>
  <metadata
     id="metadata3874">
    <rdf:RDF>
      <cc:Work
         rdf:about="">
        <dc:format>image/svg+xml</dc:format>
        <dc:type
           rdf:resource="http://purl.org/dc/dcmitype/StillImage" />
        <dc:title />
      </cc:Work>
    </rdf:RDF>
  </metadata>
  <g
     inkscape:label="Capa 1"
     inkscape:groupmode="layer"
     id="layer1"
     transform="translate(-326,-534.3622)">
    <g
       id="g4228"
       transform="translate(-0.99999987,0.99999835)"
       style="fill:#ffffff;fill-opacity:1">
      <g
         inkscape:label="Capa 1"
         id="layer1-64"
         transform="matrix(0.66666664,0,0,0.66666664,70.952391,189.83025)"
         style="fill:#ffffff;fill-opacity:1">
        <g
           transform="matrix(1.9878714,0,0,1.9878714,384.66846,-1544.2598)"
           id="layer1-46"
           inkscape:label="Capa 1"
           style="fill:#ffffff;fill-opacity:1;stroke:#000000;stroke-opacity:1">
          <g
             inkscape:label="Capa 1"
             id="layer1-4"
             transform="translate(-412.88298,512.00351)"
             style="fill:#ffffff;fill-opacity:1;stroke:#000000;stroke-opacity:1">
            <g
               transform="translate(392.57143,-514.5642)"
               id="layer1-7"
               inkscape:label="Capa 1"
               style="fill:#ffffff;fill-opacity:1;stroke:#000000;stroke-opacity:1" />
            <g
               id="g4240"
               transform="translate(341.79698,500.25245)"
               style="fill:#ffffff;fill-opacity:1;stroke:#000000;stroke-opacity:1">
              <g
                 inkscape:transform-center-y="-9.4924686"
                 inkscape:transform-center-x="5.4653607"
                 inkscape:label="Capa 1"
                 id="layer1-1-0"
                 transform="translate(-392.98822,-511.27795)"
                 style="fill:#ffffff;fill-opacity:1;stroke:#000000;stroke-opacity:1">
                <g
                   inkscape:label="Capa 1"
                   id="layer1-99"
                   transform="translate(462.62403,-499.75327)"
                   style="fill:#ffffff;fill-opacity:1;stroke:#000000;stroke-opacity:1">
                  <g
                     transform="matrix(0.81522607,0,0,0.81522607,-328.41705,612.76049)"
                     id="layer1-69"
                     inkscape:label="Capa 1"
                     style="fill:#ffffff;fill-opacity:1;stroke:#000000;stroke-opacity:1">
                    <g
                       style="fill:#ffffff;fill-opacity:1;stroke:#000000;stroke-opacity:1"
                       inkscape:label="Capa 1"
                       id="layer1-7-0"
                       transform="translate(392.57143,-514.5642)" />
                    <g
                       transform="translate(341.79698,500.25245)"
                       id="g4240-2"
                       style="fill:#ffffff;fill-opacity:1;stroke:#000000;stroke-opacity:1">
                      <g
                         transform="translate(-392.98822,-511.27795)"
                         id="layer1-1-9"
                         inkscape:label="Capa 1"
                         inkscape:transform-center-x="5.4653607"
                         inkscape:transform-center-y="-9.4924686"
                         style="fill:#ffffff;fill-opacity:1;stroke:#000000;stroke-opacity:1">
                        <g
                           transform="translate(0.41988239,0.03484499)"
                           inkscape:label="Capa 1"
                           id="layer1-3"
                           style="fill:#ffffff;fill-opacity:1;stroke:#000000;stroke-opacity:1">
                          <g
                             transform="translate(-4.9074814,-7.6656037)"
                             id="layer1-9"
                             inkscape:label="Capa 1"
                             inkscape:transform-center-x="5.4653607"
                             inkscape:transform-center-y="-9.4924686"
                             style="fill:#ffffff;fill-opacity:1;stroke:#000000;stroke-opacity:1">
                            <g
                               transform="matrix(0.53861909,0,0,0.53861909,252.9433,261.18451)"
                               id="layer1-8"
                               inkscape:label="Capa 1"
                               style="fill:#ffffff;fill-opacity:1;stroke:#000000;stroke-opacity:1">
                              <g
                                 transform="matrix(0.65762761,0,0,0.65762761,163.45346,180.49688)"
                                 id="g4447"
                                 style="fill:#ffffff;fill-opacity:1;stroke:#000000;stroke-opacity:1">
                                <g
                                   transform="matrix(1.19667,0,0,1.19667,-66.25568,-108.59327)"
                                   id="g4201"
                                   style="fill:#ffffff;fill-opacity:1;stroke:#000000;stroke-opacity:1">
                                <g
                                   inkscape:label="Capa 1"
                                   id="layer1-6"
                                   transform="translate(-48.123492,9.4954666)"
                                   style="fill:#ffffff;fill-opacity:1;stroke:#000000;stroke-opacity:1">
                                <g
                                   id="layer1-4-3"
                                   inkscape:label="Capa 1"
                                   transform="translate(-51.525445,5.4558218)"
                                   style="fill:#ffffff;fill-opacity:1;stroke:#000000;stroke-opacity:1">
                                <g
                                   transform="translate(-34.965532,2.4832225)"
                                   inkscape:label="Capa 1"
                                   id="layer1-3-8"
                                   style="fill:#ffffff;fill-opacity:1;stroke:#000000;stroke-opacity:1" />
                                </g>
                                <g
                                   id="g4403"
                                   transform="translate(50.777056,-5.4014337)"
                                   style="fill:#ffffff;fill-opacity:1;stroke:#000000;stroke-opacity:1" />
                                </g>
                                <g
                                   style="fill:#ffffff;fill-opacity:1;stroke:#000000;stroke-opacity:1"
                                   transform="matrix(0.14062974,0,0,0.14062974,355.23585,526.18081)"
                                   sketch:type="MSLayerGroup"
                                   id="chevron18" />
                                </g>
                              </g>
                            </g>
                          </g>
                        </g>
                      </g>
                    </g>
                  </g>
                </g>
              </g>
            </g>
          </g>
        </g>
        <g
           transform="translate(374.61313,-496.84069)"
           id="layer1-33"
           inkscape:label="Capa 1"
           style="fill:#ffffff;stroke:#000000;stroke-opacity:1;fill-opacity:1">
          <g
             inkscape:label="Capa 1"
             id="layer1-99-5"
             transform="matrix(0.96260036,0,0,0.96260036,-533.24725,449.15877)"
             style="fill:#ffffff;fill-opacity:1;stroke:none;stroke-opacity:1">
            <g
               id="g5548"
               sketch:type="MSShapeGroup"
               transform="matrix(0.14300539,0,0,0.14300539,554.04072,610.18772)"
               style="fill:#ffffff;fill-opacity:1;stroke:none;stroke-opacity:1">
              <g
                 transform="matrix(9.581865,0,0,9.581865,-7259.0635,-1926.5204)"
                 id="layer1-9-9"
                 inkscape:label="Layer 1"
                 style="fill:#ffffff;fill-opacity:1;stroke:none;stroke-opacity:1">
                <g
                   inkscape:label="Capa 1"
                   id="layer1-2"
                   transform="matrix(0.37907185,0,0,0.37907185,615.60988,-10.010196)"
                   style="fill:#ffffff;fill-opacity:1;stroke:none;stroke-opacity:1">
                  <g
                     style="fill:#ffffff;fill-opacity:1;stroke:none;stroke-opacity:1"
                     transform="matrix(0.20663505,0,0,0.20663505,416.2249,531.51293)"
                     sketch:type="MSLayerGroup"
                     id="remove11" />
                </g>
              </g>
            </g>
          </g>
          <g
             transform="matrix(1.0079909,0,0,1.0079909,-452.94077,476.65222)"
             id="layer1-63"
             inkscape:label="Capa 1"
             style="fill:#ffffff;fill-opacity:1">
            <g
               inkscape:label="Capa 1"
               id="layer1-8-9"
               transform="matrix(1.5359999,0,0,1.5359999,383.7381,-1067.9379)"
               style="fill:#ffffff;fill-opacity:1">
              <g
                 id="cog2"
                 sketch:type="MSLayerGroup"
                 transform="matrix(0.12485916,0,0,0.12485916,3.0932607,1033.6287)"
                 style="fill:#ffffff;fill-opacity:1">
                <path
                   style="fill:#ffffff;fill-opacity:1;stroke:none;stroke-width:0.4960362"
                   d="M 1.1503906 3 C 0.73325814 3 0.3984375 3.33678 0.3984375 3.7539062 L 0.3984375 18.246094 C 0.3984375 18.663225 0.73325814 19 1.1503906 19 L 20.849609 19 C 21.266735 19 21.601562 18.663225 21.601562 18.246094 L 21.601562 3.7539062 C 21.601562 3.33678 21.266735 3 20.849609 3 L 1.1503906 3 z M 8.5 8 L 13.5 11 L 8.5 14 L 8.5 8 z "
                   transform="matrix(7.7593094,0,0,7.7593094,366.26702,60.097102)"
                   id="path4463" />
              </g>
            </g>
          </g>
        </g>
      </g>
      <g
         transform="translate(-57.000002,-4.0000006)"
         inkscape:label="Capa 1"
         id="layer1-75"
         style="fill:#ffffff;fill-opacity:1">
        <g
           transform="translate(-224.28571,-74.28568)"
           id="layer1-4-2"
           inkscape:label="Capa 1"
           style="fill:#ffffff;fill-opacity:1" />
      </g>
    </g>
  </g>
</svg>

<svg xmlns="http://www.w3.org/2000/svg" viewBox="0 0 22 22"><defs><clipPath><rect y="8" x="8" height="32" width="32" fill="none" rx="16"/></clipPath><clipPath><rect y="507.8" x="392.57" height="32" width="32" fill="none" rx="16"/></clipPath><clipPath><rect width="32" height="32" x="392.57" y="507.8" fill="none" rx="16"/></clipPath><clipPath><rect y="507.8" x="392.57" height="32" width="32" fill="none" rx="16"/></clipPath><clipPath><rect y="507.8" x="392.57" height="32" width="32" fill="none" rx="16"/></clipPath><clipPath><rect width="32" height="32" x="392.57" y="507.8" fill="none" rx="16"/></clipPath><clipPath><rect width="32" height="32" x="8" y="8" fill="none" rx="16"/></clipPath><clipPath><rect width="32" height="32" x="392.57" y="507.8" fill="none" rx="16"/></clipPath><clipPath><rect y="507.8" x="392.57" height="32" width="32" fill="none" rx="16"/></clipPath><clipPath><rect y="507.8" x="392.57" height="32" width="32" fill="none" rx="16"/></clipPath><clipPath><rect y="8" x="8" height="32" width="32" fill="none" rx="16"/></clipPath><clipPath><path d="m0 706.47h1490.93v-706.47h-1490.93v706.47"/></clipPath><clipPath><path d="m22.2 686.12h1447.73v-667.19h-1447.73v667.19"/></clipPath><clipPath><rect y="507.8" x="392.57" height="32" width="32" fill="none" rx="16"/></clipPath><clipPath><rect y="507.8" x="392.57" height="32" width="32" fill="none" rx="16"/></clipPath><clipPath><rect y="507.8" x="392.57" height="32" width="32" fill="none" rx="16"/></clipPath><clipPath><rect y="507.8" x="392.57" height="32" width="32" fill="none" rx="16"/></clipPath><clipPath><rect y="8" x="8" height="32" width="32" fill="none" rx="16"/></clipPath></defs><path d="m1.15 3c-.417 0-.752.337-.752.754v14.492c0 .417.335.754.752.754h19.699c.417 0 .752-.337.752-.754v-14.492c0-.417-.335-.754-.752-.754h-19.699m7.35 5l5 3-5 3v-6" transform="translate(.0001-.002)" fill="#fff" stroke="none"/></svg>
